packages/Eid/src/EidIcon/index.svg

<svg xmlns="http://www.w3.org/2000/svg" viewBox="0 0 32 32"><path fill="#e0e0e2" d="M20.52119,9.18882l1.9579-3.87773a.45.45,0,0,1,.807.00735l1.88693,3.91275a.45.45,0,0,0,.33656.24925l4.293.66379a.45.45,0,0,1,.2424.7698l-3.13815,3.00368a.45.45,0,0,0-.13305.39712l.6953,4.288a.45.45,0,0,1-.65722.46841l-3.82642-2.05637a.45.45,0,0,0-.41879-.00382L18.7034,18.99735a.45.45,0,0,1-.64858-.48031l.7733-4.27459a.45.45,0,0,0-.12579-.39947l-3.08291-3.06036a.45.45,0,0,1,.25638-.76526l4.30434-.58547A.45.45,0,0,0,20.52119,9.18882Z"/><path fill="#2c2b2d" d="M27.02588,19.626a.95168.95168,0,0,1-.4502-.11426l-3.82714-2.05664-3.81641,1.9873a.95044.95044,0,0,1-1.36963-1.01416l.77344-4.27441L15.26758,11.1377a.95.95,0,0,1,.541-1.61573l4.27784-.58154,1.94628-3.855a1.00369,1.00369,0,0,1,.85645-.52149.94339.94339,0,0,1,.84717.53711l1.88672,3.9126,4.25586.63623a.9501.9501,0,0,1,.51172,1.62549l-3.13819,3.00342.71045,4.24414a.95225.95225,0,0,1-.937,1.103Zm-4.25342-3.16455a.95373.95373,0,0,1,.44873.1123l3.82764,2.05713L26.28027,14.395a.9504.9504,0,0,1,.28028-.83838l3.13867-3.00391-4.26563-.57812a.94935.94935,0,0,1-.71142-.52686L22.83594,5.53564,20.96777,9.41406h-.00048v.00049a.95022.95022,0,0,1-.71924.51318l-4.30469.58545,3.11084,2.97461a.95.95,0,0,1,.26611.84375L18.54688,18.606l3.791-2.03955A.94731.94731,0,0,1,22.77246,16.46143ZM20.11279,8.93652Z"/><path fill="#e0e0e2" d="M7.48782,3.3885a15.38569,15.38569,0,0,1,4.79881-2.741.44823.44823,0,0,1,.49355.70579A15.83333,15.83333,0,0,0,27.508,26.86068a.44767.44767,0,0,1,.366.77832,15.42065,15.42065,0,0,1-6.10285,3.204,15.99231,15.99231,0,0,1-15.0002-3.738A15.9186,15.9186,0,0,1,7.48782,3.3885Z"/><path fill="#2c2b2d" d="M17.67529,31.87744a16.45963,16.45963,0,0,1-11.24658-4.4082A16.01327,16.01327,0,0,1,1.32178,15.2085,16.53306,16.53306,0,0,1,7.166,3.00586h0A15.91459,15.91459,0,0,1,12.11963.17627.93635.93635,0,0,1,13.2002.5166a.94671.94671,0,0,1-.02784,1.14746A15.33324,15.33324,0,0,0,27.43457,26.36621a.94424.94424,0,0,1,1.0083.54834.9328.9328,0,0,1-.24365,1.10449,15.93472,15.93472,0,0,1-6.29932,3.30664A16.38591,16.38591,0,0,1,17.67529,31.87744Zm-5.3955-30.6958A14.89672,14.89672,0,0,0,7.80957,3.77148h0A15.529,15.529,0,0,0,2.32178,15.23633a15.02619,15.02619,0,0,0,4.7915,11.50439,15.51038,15.51038,0,0,0,14.52881,3.61914,14.94481,14.94481,0,0,0,5.76318-2.97949A16.33294,16.33294,0,0,1,12.27979,1.18164Zm-4.792,2.207h0Z"/></svg>

<svg xmlns="http://www.w3.org/2000/svg" viewBox="0 0 32 32">
  <path fill="#e0e0e2" d="M20.521 9.189L22.48 5.31a.45.45 0 01.807.007l1.887 3.913a.45.45 0 00.337.25l4.293.663a.45.45 0 01.242.77l-3.138 3.004a.45.45 0 00-.133.397l.695 4.288a.45.45 0 01-.657.468l-3.827-2.056a.45.45 0 00-.418-.004l-3.864 1.986a.45.45 0 01-.648-.48l.773-4.275a.45.45 0 00-.126-.399l-3.083-3.06a.45.45 0 01.257-.766l4.304-.585a.45.45 0 00.341-.243z"/>
  <path fill="#2c2b2d" d="M27.026 19.626a.952.952 0 01-.45-.114l-3.827-2.057-3.817 1.987a.95.95 0 01-1.37-1.014l.774-4.274-3.068-3.016a.95.95 0 01.54-1.616l4.278-.582 1.947-3.855a1.004 1.004 0 01.856-.521.943.943 0 01.847.537l1.887 3.913 4.256.636a.95.95 0 01.512 1.625l-3.139 3.004.71 4.244a.952.952 0 01-.936 1.103zm-4.254-3.165a.954.954 0 01.45.113l3.827 2.057-.769-4.236a.95.95 0 01.28-.838l3.14-3.004-4.266-.578a.95.95 0 01-.712-.527l-1.886-3.912-1.868 3.878a.95.95 0 01-.72.514l-4.305.585 3.111 2.975a.95.95 0 01.266.844l-.773 4.274 3.79-2.04a.947.947 0 01.435-.105zm-2.66-7.524z"/>
  <path fill="#e0e0e2" d="M7.488 3.389A15.386 15.386 0 0112.287.647a.448.448 0 01.493.705A15.833 15.833 0 0027.508 26.86a.448.448 0 01.366.778 15.42 15.42 0 01-6.103 3.204 15.992 15.992 0 01-15-3.738 15.919 15.919 0 01.717-23.716z"/>
  <path fill="#2c2b2d" d="M17.675 31.877A16.46 16.46 0 016.43 27.47a16.013 16.013 0 01-5.107-12.26A16.533 16.533 0 017.166 3.006 15.915 15.915 0 0112.12.176a.936.936 0 011.08.34.947.947 0 01-.028 1.148 15.333 15.333 0 0014.263 24.702.944.944 0 011.008.549.933.933 0 01-.244 1.104 15.935 15.935 0 01-6.3 3.307 16.386 16.386 0 01-4.224.551zM12.28 1.182a14.897 14.897 0 00-4.47 2.59 15.529 15.529 0 00-5.488 11.464 15.026 15.026 0 004.791 11.505 15.51 15.51 0 0014.53 3.619 14.945 14.945 0 005.762-2.98A16.333 16.333 0 0112.28 1.182zM7.488 3.389z"/>
</svg>
